img/svg/icon-font/buildings.svg

<svg width="22" height="22" viewBox="0 0 22 22" fill="none" xmlns="http://www.w3.org/2000/svg">
<path d="M22 21.1406C22 21.6153 21.6153 22 21.1406 22H12.7188C12.2441 22 11.8594 21.6153 11.8594 21.1406V5.11328H11C10.5253 5.11328 10.1406 4.72858 10.1406 4.25391V3.39453H4.98438V4.25391C4.98438 4.72858 4.59967 5.11328 4.125 5.11328H3.26562V21.1406C3.26562 21.6153 2.88092 22 2.40625 22H0.859375C0.384705 22 0 21.6153 0 21.1406C0 20.666 0.384705 20.2812 0.859375 20.2812H1.54688V4.25391C1.54688 3.77924 1.93158 3.39453 2.40625 3.39453H3.26562V2.53516C3.26562 2.06049 3.65033 1.67578 4.125 1.67578H6.70312V0.859375C6.70312 0.384705 7.08783 0 7.5625 0C8.03717 0 8.42188 0.384705 8.42188 0.859375V1.67578H11C11.4747 1.67578 11.8594 2.06049 11.8594 2.53516V3.39453H12.7188C12.7229 3.39453 12.727 3.39503 12.7312 3.3952C12.8975 3.38899 13.0675 3.43112 13.2193 3.52646L18.6721 6.9559C19.7873 7.65733 20.4531 8.86264 20.4531 10.1802V13.4062C20.4531 13.8809 20.0684 14.2656 19.5938 14.2656C19.1191 14.2656 18.7344 13.8809 18.7344 13.4062V10.1802C18.7344 9.45715 18.369 8.79567 17.757 8.4108L13.5781 5.78265V20.2812H15.2539V18.9062C15.2539 18.4316 15.6386 18.0469 16.1133 18.0469C16.588 18.0469 16.9727 18.4316 16.9727 18.9062V20.2812H18.7344V17.6602C18.7344 17.1855 19.1191 16.8008 19.5938 16.8008C20.0684 16.8008 20.4531 17.1855 20.4531 17.6602V20.2812H21.1406C21.6153 20.2812 22 20.666 22 21.1406ZM5.80078 10.3125C5.32611 10.3125 4.94141 10.6972 4.94141 11.1719V12.0312C4.94141 12.5059 5.32611 12.8906 5.80078 12.8906C6.27545 12.8906 6.66016 12.5059 6.66016 12.0312V11.1719C6.66016 10.6972 6.27545 10.3125 5.80078 10.3125ZM9.23828 10.3125C8.76361 10.3125 8.37891 10.6972 8.37891 11.1719V12.0312C8.37891 12.5059 8.76361 12.8906 9.23828 12.8906C9.71295 12.8906 10.0977 12.5059 10.0977 12.0312V11.1719C10.0977 10.6972 9.71295 10.3125 9.23828 10.3125ZM5.80078 14.1797C5.32611 14.1797 4.94141 14.5644 4.94141 15.0391V15.8984C4.94141 16.3731 5.32611 16.7578 5.80078 16.7578C6.27545 16.7578 6.66016 16.3731 6.66016 15.8984V15.0391C6.66016 14.5644 6.27545 14.1797 5.80078 14.1797ZM9.23828 14.1797C8.76361 14.1797 8.37891 14.5644 8.37891 15.0391V15.8984C8.37891 16.3731 8.76361 16.7578 9.23828 16.7578C9.71295 16.7578 10.0977 16.3731 10.0977 15.8984V15.0391C10.0977 14.5644 9.71295 14.1797 9.23828 14.1797ZM9.23828 18.0469C8.76361 18.0469 8.37891 18.4316 8.37891 18.9062V19.7656C8.37891 20.2403 8.76361 20.625 9.23828 20.625C9.71295 20.625 10.0977 20.2403 10.0977 19.7656V18.9062C10.0977 18.4316 9.71295 18.0469 9.23828 18.0469ZM16.9727 11.1719C16.9727 10.6972 16.588 10.3125 16.1133 10.3125C15.6386 10.3125 15.2539 10.6972 15.2539 11.1719V12.0312C15.2539 12.5059 15.6386 12.8906 16.1133 12.8906C16.588 12.8906 16.9727 12.5059 16.9727 12.0312V11.1719ZM16.1133 14.1797C15.6386 14.1797 15.2539 14.5644 15.2539 15.0391V15.8984C15.2539 16.3731 15.6386 16.7578 16.1133 16.7578C16.588 16.7578 16.9727 16.3731 16.9727 15.8984V15.0391C16.9727 14.5644 16.588 14.1797 16.1133 14.1797ZM5.80078 18.0469C5.32611 18.0469 4.94141 18.4316 4.94141 18.9062V19.7656C4.94141 20.2403 5.32611 20.625 5.80078 20.625C6.27545 20.625 6.66016 20.2403 6.66016 19.7656V18.9062C6.66016 18.4316 6.27545 18.0469 5.80078 18.0469ZM5.80078 6.44531C5.32611 6.44531 4.94141 6.83002 4.94141 7.30469V8.16406C4.94141 8.63873 5.32611 9.02344 5.80078 9.02344C6.27545 9.02344 6.66016 8.63873 6.66016 8.16406V7.30469C6.66016 6.83002 6.27545 6.44531 5.80078 6.44531ZM9.23828 6.44531C8.76361 6.44531 8.37891 6.83002 8.37891 7.30469V8.16406C8.37891 8.63873 8.76361 9.02344 9.23828 9.02344C9.71295 9.02344 10.0977 8.63873 10.0977 8.16406V7.30469C10.0977 6.83002 9.71295 6.44531 9.23828 6.44531Z" fill="#4C51CB"/>
</svg>

<svg width="22" height="22" fill="none" xmlns="http://www.w3.org/2000/svg"><path d="M22 21.14a.86.86 0 01-.86.86h-8.42a.86.86 0 01-.86-.86V5.114H11a.86.86 0 01-.86-.86v-.858H4.985v.859a.86.86 0 01-.859.86h-.86V21.14a.86.86 0 01-.859.859H.86a.86.86 0 110-1.719h.688V4.254a.86.86 0 01.86-.86h.859v-.859a.86.86 0 01.859-.86h2.578V.86a.86.86 0 111.719 0v.817H11a.86.86 0 01.86.86v.859h.871a.855.855 0 01.488.131l5.453 3.43a3.789 3.789 0 011.781 3.224v3.226a.86.86 0 11-1.719 0V10.18c0-.723-.365-1.384-.977-1.77l-4.179-2.627V20.28h1.676v-1.375a.86.86 0 111.719 0v1.375h1.761v-2.62a.86.86 0 111.72 0v2.62h.687a.86.86 0 01.859.86zM5.8 10.313a.86.86 0 00-.859.86v.86a.86.86 0 101.72 0v-.86a.86.86 0 00-.86-.86zm3.438 0a.86.86 0 00-.86.86v.86a.86.86 0 101.72 0v-.86a.86.86 0 00-.86-.86zM5.801 14.18a.86.86 0 00-.86.86v.858a.86.86 0 101.72 0v-.859a.86.86 0 00-.86-.86zm3.437 0a.86.86 0 00-.86.86v.858a.86.86 0 101.72 0v-.859a.86.86 0 00-.86-.86zm0 3.867a.86.86 0 00-.86.86v.859a.86.86 0 101.72 0v-.86a.86.86 0 00-.86-.86zm7.735-6.875a.86.86 0 10-1.72 0v.86a.86.86 0 101.72 0v-.86zm-.86 3.008a.86.86 0 00-.86.86v.858a.86.86 0 101.72 0v-.859a.86.86 0 00-.86-.86zM5.801 18.047a.86.86 0 00-.86.86v.859a.86.86 0 101.72 0v-.86a.86.86 0 00-.86-.86zm0-11.602a.86.86 0 00-.86.86v.86a.86.86 0 101.72 0v-.86a.86.86 0 00-.86-.86zm3.437 0a.86.86 0 00-.86.86v.86a.86.86 0 101.72 0v-.86a.86.86 0 00-.86-.86z" fill="#4C51CB"/></svg>
